file/playstation.svg

<svg clip-rule="evenodd" fill-rule="evenodd" stroke-linejoin="round" stroke-miterlimit="1.41421" viewBox="0 0 560 400" xmlns="http://www.w3.org/2000/svg"><path d="m197.239 117.962c-3.868 4.88-13.343 8.36-13.343 8.36l-70.492 25.32v-18.672l51.877-18.484c5.887-2.11 6.791-5.091 2.006-6.657-4.776-1.569-13.425-1.119-19.316.999l-34.567 12.174v-19.379l1.993-.674s9.988-3.535 24.034-5.091c14.045-1.547 31.242.211 44.743 5.329 15.215 4.808 16.928 11.895 13.065 16.775zm-77.124-31.796v-47.753c0-5.608-1.035-10.771-6.297-12.232-4.029-1.291-6.53 2.451-6.53 8.054v119.584l-32.25-10.236v-142.583c13.712 2.545 33.689 8.563 44.429 12.183 27.312 9.377 36.572 21.048 36.572 47.344 0 25.63-15.821 35.344-35.924 25.639zm-104.253 44.852c-15.619-4.399-18.219-13.564-11.099-18.844 6.579-4.875 17.769-8.545 17.769-8.545l46.241-16.442v18.745l-33.276 11.909c-5.878 2.109-6.782 5.095-2.005 6.66 4.78 1.565 13.433 1.12 19.32-.994l15.961-5.792v16.77c-1.012.18-2.141.36-3.184.535-15.966 2.609-32.97 1.52-49.727-4.002zm171.105 7.425c2.02 0 3.913.782 5.339 2.226 1.425 1.421 2.212 3.319 2.212 5.334 0 2.024-.787 3.912-2.212 5.334-1.426 1.434-3.319 2.217-5.339 2.217-2.019 0-3.908-.783-5.338-2.217-1.426-1.422-2.208-3.31-2.208-5.334 0-4.165 3.382-7.56 7.546-7.56zm-6.278 7.56c0 1.677.652 3.256 1.839 4.434 1.183 1.196 2.766 1.844 4.439 1.844 3.468 0 6.279-2.815 6.279-6.278 0-1.682-.648-3.261-1.84-4.444-1.183-1.196-2.766-1.839-4.439-1.839s-3.256.643-4.439 1.839c-1.187 1.183-1.839 2.762-1.839 4.444zm8.558-4.07c.828.364 1.246 1.066 1.246 2.064 0 .513-.108.944-.328 1.282-.158.243-.382.44-.634.611.198.117.373.257.503.419.18.233.284.607.297 1.115l.041 1.075c.013.288.031.508.076.643.045.198.131.324.239.364l.112.054v.49h-.184-1.336-.108l-.054-.094c-.045-.09-.076-.193-.108-.328-.022-.122-.045-.333-.058-.657l-.068-1.336c-.018-.463-.175-.751-.472-.904-.185-.085-.49-.125-.904-.125h-2.289v3.444h-.189-1.088-.185v-.184-8.037-.184h3.904c.638 0 1.174.094 1.587.288zm-4.029 3.386h2.329c.468 0 .841-.085 1.107-.261.243-.175.36-.494.36-.958 0-.503-.167-.832-.518-1.007-.193-.094-.463-.148-.805-.148h-2.473z" fill="#1f1f1f" transform="matrix(1.36364 0 0 1.36364 143.636 94.4415)"/></svg>

<?xml version="1.0" encoding="UTF-8" standalone="no"?>
<!DOCTYPE svg PUBLIC "-//W3C//DTD SVG 1.1//EN" "http://www.w3.org/Graphics/SVG/1.1/DTD/svg11.dtd">
<svg width="100%" height="100%" viewBox="0 0 560 400" version="1.1" xmlns="http://www.w3.org/2000/svg" xmlns:xlink="http://www.w3.org/1999/xlink" xml:space="preserve" xmlns:serif="http://www.serif.com/" style="fill-rule:evenodd;clip-rule:evenodd;stroke-linejoin:round;stroke-miterlimit:1.41421;">
    <g id="path-1" transform="matrix(1.36364,0,0,1.36364,143.636,94.4415)">
        <path d="M197.239,117.962C193.371,122.842 183.896,126.322 183.896,126.322L113.404,151.642L113.404,132.97L165.281,114.486C171.168,112.376 172.072,109.395 167.287,107.829C162.511,106.26 153.862,106.71 147.971,108.828L113.404,121.002L113.404,101.623L115.397,100.949C115.397,100.949 125.385,97.414 139.431,95.858C153.476,94.311 170.673,96.069 184.174,101.187C199.389,105.995 201.102,113.082 197.239,117.962ZM120.115,86.166L120.115,38.413C120.115,32.805 119.08,27.642 113.818,26.181C109.789,24.89 107.288,28.632 107.288,34.235L107.288,153.819L75.038,143.583L75.038,1C88.75,3.545 108.727,9.563 119.467,13.183C146.779,22.56 156.039,34.231 156.039,60.527C156.039,86.157 140.218,95.871 120.115,86.166ZM15.862,131.018C0.243,126.619 -2.357,117.454 4.763,112.174C11.342,107.299 22.532,103.629 22.532,103.629L68.773,87.187L68.773,105.932L35.497,117.841C29.619,119.95 28.715,122.936 33.492,124.501C38.272,126.066 46.925,125.621 52.812,123.507L68.773,117.715L68.773,134.485C67.761,134.665 66.632,134.845 65.589,135.02C49.623,137.629 32.619,136.54 15.862,131.018ZM186.967,138.443C188.987,138.443 190.88,139.225 192.306,140.669C193.731,142.09 194.518,143.988 194.518,146.003C194.518,148.027 193.731,149.915 192.306,151.337C190.88,152.771 188.987,153.554 186.967,153.554C184.948,153.554 183.059,152.771 181.629,151.337C180.203,149.915 179.421,148.027 179.421,146.003C179.421,141.838 182.803,138.443 186.967,138.443ZM180.689,146.003C180.689,147.68 181.341,149.259 182.528,150.437C183.711,151.633 185.294,152.281 186.967,152.281C190.435,152.281 193.246,149.466 193.246,146.003C193.246,144.321 192.598,142.742 191.406,141.559C190.223,140.363 188.64,139.72 186.967,139.72C185.294,139.72 183.711,140.363 182.528,141.559C181.341,142.742 180.689,144.321 180.689,146.003ZM189.247,141.933C190.075,142.297 190.493,142.999 190.493,143.997C190.493,144.51 190.385,144.941 190.165,145.279C190.007,145.522 189.783,145.719 189.531,145.89C189.729,146.007 189.904,146.147 190.034,146.309C190.214,146.542 190.318,146.916 190.331,147.424L190.372,148.499C190.385,148.787 190.403,149.007 190.448,149.142C190.493,149.34 190.579,149.466 190.687,149.506L190.799,149.56L190.799,150.05L190.615,150.05L189.279,150.05L189.171,150.05L189.117,149.956C189.072,149.866 189.041,149.763 189.009,149.628C188.987,149.506 188.964,149.295 188.951,148.971L188.883,147.635C188.865,147.172 188.708,146.884 188.411,146.731C188.226,146.646 187.921,146.606 187.507,146.606L185.218,146.606L185.218,150.05L185.029,150.05L183.941,150.05L183.756,150.05L183.756,149.866L183.756,141.829L183.756,141.645L187.66,141.645C188.298,141.645 188.834,141.739 189.247,141.933L189.247,141.933ZM185.218,145.319L187.547,145.319C188.015,145.319 188.388,145.234 188.654,145.058C188.897,144.883 189.014,144.564 189.014,144.1C189.014,143.597 188.847,143.268 188.496,143.093C188.303,142.999 188.033,142.945 187.691,142.945L185.218,142.945L185.218,145.319Z" style="fill:rgb(31,31,31);"/>
    </g>
</svg>
